icons/merge-details-16.svg

<svg id="icons" xmlns="http://www.w3.org/2000/svg" viewBox="0 0 16 16"><defs><style>.cls-1{fill:none;}</style></defs><path d="M8.5,11,11,14.00006H9V16H8V14.00006H6Zm3.61938-8-.83331,1H14V7H2V4H5.71393L4.88062,3H1v9H5.71393l.83337-1H2V8H14v3H10.4527l.83337,1H15V3ZM11,1.99994H9V0H8V1.99994H6L8.5,5Z"/><rect class="cls-1" width="16" height="16"/></svg>

<svg xmlns="http://www.w3.org/2000/svg" viewBox="0 0 16 16"><path d="M8.5 11l2.5 3H9v2H8v-2H6zm3.62-8l-.834 1H14v3H2V4h3.714L4.88 3H1v9h4.714l.833-1H2V8h12v3h-3.547l.833 1H15V3zM11 2H9V0H8v2H6l2.5 3z"/><path fill="none" d="M0 0h16v16H0z"/></svg>
